X:31
T:Breeches Full of Stitches
R:Polka
M:4/4
L:1/4
K:A
|:A>B cA|BA ce|A>B cA|BA FE|
|A>B cA|BA ce|A>B AF|FE E2:|
|:e>f ec|BA Bc|e>f ec|BA B2|
|e>f ec|BA Bc|A>B AF|FE E2:|
